X:1
T:Hereford (Ouseley), CM
T:Hereford (Ouseley), CM
T:Frederick Arthur Gore-Ouseley, 1861
T:Public Domain Courtesy of the Cyber Hymnal™
C:Frederick Arthur Gore-Ouseley, 1861
Z:Public Domain
Z:Courtesy of the Cyber Hymnal™
%%score ( 1 2 ) ( 3 4 )
L:1/8
Q:1/4=110
M:4/4
K:Bb
V:1 treble 
V:2 treble 
V:3 bass 
V:4 bass 
V:1
 [DG]2 | [DG]2 [D^F]2 [DG]2 [=FA]2 | [GB]2 [Ac]2 [Bd]2 [Fd]2 | [Fc]2 [FB]2 [FA]2 [DG]2 | %4
 [D^F]6 [FA]2 | [GB]2 [Gd]2 [Cc]2 [CA]2 | [DB]2 [CG]2 [FA]2 [FB]2 | [Gd]2 G2 [GA]2 [^FB]2 | G6 |] %9
V:2
 x2 | x8 | x8 | x8 | x8 | x8 | x8 | x2 G2 x4 | G6 |] %9
V:3
 [G,B,]2 | [G,B,]2 [D,A,]2 [G,B,]2 [F,C]2 | E2 [C,E]2 [B,,D]2 [B,,B,]2 | %3
 [C,E]2 [D,D]2 [F,C]2 [G,B,]2 | [D,A,]6 [D,D]2 | [G,D]2 [B,=E]2 [A,F]2 [F,C]2 | %6
 [F,G,]2 [=E,G,]2 [F,C]2 [B,,D]2 | [G,,B,]2 [E,C]2 [C,E]2 (DC) | [G,B,]6 |] %9
V:4
 x2 | x8 | (E,D,) x6 | x8 | x8 | x8 | x8 | x6 D,2 | x6 |] %9

